svg/color/nano.svg

<svg height="32" viewBox="0 0 32 32" width="32" xmlns="http://www.w3.org/2000/svg"><g fill="none"><circle cx="16" cy="16" fill="#4a90e2" r="16"/><path d="m24.9497751 11c-.8575712 0-1.5832084.6926537-1.5832084 1.5832084 0 1.2533733-.197901 1.5832084-1.5832084 1.5832084h-.131934c-.7916042.065967-1.4182909.7256372-1.4182909 1.5502249v.0329835c0 1.2203898-.2308845 1.5172414-1.5832084 1.5172414-.065967 0-.131934 0-.1649175.0329835-.7916042.0989505-1.4182909.7586207-1.4182909 1.5502249 0 .8575712.6926537 1.5832084 1.5832084 1.5832084.8245877 0 1.5172414-.6596702 1.5502249-1.4512744v-.131934c0-1.1214393.3628186-1.5502249 1.5502249-1.5832084h.0329835c.8245877 0 1.5172414-.6596702 1.5502249-1.4842579v-.0989505c0-1.1544228.3628186-1.5832084 1.5832084-1.5832084.8575712 0 1.5832084-.6926537 1.5832084-1.5832084 0-.8245877-.6926537-1.5172414-1.5502249-1.5172414zm-9.3013493 3.1664168c.7916042.065967 1.4182908.7256372 1.4512743 1.5172414 0 .8905547-.6926536 1.5832084-1.5832083 1.5832084-.8905548 0-1.5832084-.7256372-1.5832084-1.5832084 0-1.1214393-.3628186-1.5502249-1.5832084-1.5502249s-1.5832084.4287856-1.5832084 1.5832084v.0989505c-.0329835.7916042-.7256372 1.4512744-1.55022492 1.4512744-.89055472 0-1.5832084-.7256372-1.5832084-1.5832084 0-.8245877.62668666-1.4842579 1.41829086-1.5502249h.13193403c1.38530733 0 1.58320843-.2968516 1.58320843-1.5502249 0-.8905547.7256371-1.5832084 1.5832084-1.5832084.8905547 0 1.5832084.7256372 1.5832084 1.5832084 0 1.2533733.197901 1.5832084 1.5832084 1.5832084zm-9.5652174 6.2668666c-.87438186 0-1.5832084-.7088266-1.5832084-1.5832084 0-.8743819.70882654-1.5832084 1.5832084-1.5832084.87438185 0 1.58320839.7088265 1.58320839 1.5832084 0 .8743818-.70882654 1.5832084-1.58320839 1.5832084z" fill="#fff"/></g></svg>

<?xml version="1.0" encoding="UTF-8"?>
<svg width="32px" height="32px" viewBox="0 0 32 32" version="1.1" xmlns="http://www.w3.org/2000/svg" xmlns:xlink="http://www.w3.org/1999/xlink">
    <!-- Generator: Sketch 47.1 (45422) - http://www.bohemiancoding.com/sketch -->
    <title>color</title>
    <desc>Created with Sketch.</desc>
    <defs></defs>
    <g id="Page-1" stroke="none" stroke-width="1" fill="none" fill-rule="evenodd">
        <g id="color" fill-rule="nonzero">
            <g id="nano">
                <circle id="Oval" fill="#4A90E2" cx="16" cy="16" r="16"></circle>
                <path d="M24.9497751,11 C24.0922039,11 23.3665667,11.6926537 23.3665667,12.5832084 C23.3665667,13.8365817 23.1686657,14.1664168 21.7833583,14.1664168 L21.6514243,14.1664168 C20.8598201,14.2323838 20.2331334,14.892054 20.2331334,15.7166417 L20.2331334,15.7496252 C20.2331334,16.970015 20.0022489,17.2668666 18.649925,17.2668666 C18.583958,17.2668666 18.517991,17.2668666 18.4850075,17.2998501 C17.6934033,17.3988006 17.0667166,18.0584708 17.0667166,18.850075 C17.0667166,19.7076462 17.7593703,20.4332834 18.649925,20.4332834 C19.4745127,20.4332834 20.1671664,19.7736132 20.2001499,18.982009 L20.2001499,18.850075 C20.2001499,17.7286357 20.5629685,17.2998501 21.7503748,17.2668666 L21.7833583,17.2668666 C22.607946,17.2668666 23.3005997,16.6071964 23.3335832,15.7826087 L23.3335832,15.6836582 C23.3335832,14.5292354 23.6964018,14.1004498 24.9167916,14.1004498 C25.7743628,14.1004498 26.5,13.4077961 26.5,12.5172414 C26.5,11.6926537 25.8073463,11 24.9497751,11 L24.9497751,11 Z M15.6484258,14.1664168 L15.6484258,14.1664168 C16.44003,14.2323838 17.0667166,14.892054 17.0997001,15.6836582 C17.0997001,16.5742129 16.4070465,17.2668666 15.5164918,17.2668666 C14.625937,17.2668666 13.9332834,16.5412294 13.9332834,15.6836582 C13.9332834,14.5622189 13.5704648,14.1334333 12.350075,14.1334333 C11.1296852,14.1334333 10.7668666,14.5622189 10.7668666,15.7166417 L10.7668666,15.8155922 C10.7338831,16.6071964 10.0412294,17.2668666 9.21664168,17.2668666 C8.32608696,17.2668666 7.63343328,16.5412294 7.63343328,15.6836582 C7.63343328,14.8590705 8.26011994,14.1994003 9.05172414,14.1334333 L9.18365817,14.1334333 C10.5689655,14.1334333 10.7668666,13.8365817 10.7668666,12.5832084 C10.7668666,11.6926537 11.4925037,11 12.350075,11 C13.2406297,11 13.9332834,11.7256372 13.9332834,12.5832084 C13.9332834,13.8365817 14.1311844,14.1664168 15.5164918,14.1664168 L15.6484258,14.1664168 Z M6.0832084,20.4332834 C5.20882654,20.4332834 4.5,19.7244568 4.5,18.850075 C4.5,17.9756931 5.20882654,17.2668666 6.0832084,17.2668666 C6.95759025,17.2668666 7.66641679,17.9756931 7.66641679,18.850075 C7.66641679,19.7244568 6.95759025,20.4332834 6.0832084,20.4332834 Z" id="Shape" fill="#FFFFFF"></path>
            </g>
        </g>
    </g>
</svg>
